azure-patterns/svg-circle-lightning.svg

<svg xmlns="http://www.w3.org/2000/svg" viewBox="0 0 49 49">
                                
                            
    <path d="M26.0048 3.33008V8.47149C30.2851 8.75853 34.1771 10.4554 37.2163 13.1064L40.8297 9.49302C36.8702 5.905 31.7034 3.62556 26.0048 3.33008Z" fill="#50E6FF"></path>
    <path d="M6.83211 11.2993C3.27786 15.2757 1.02375 20.434 0.745148 26.1241H5.77681C6.06385 21.8439 7.77765 17.9435 10.437 14.9042L6.83211 11.2993Z" fill="#0078D4"></path>
    <path d="M23.4721 3.32129C17.7819 3.61677 12.6152 5.89622 8.64726 9.47579L12.2606 13.0891C15.2999 10.4382 19.1918 8.7413 23.4721 8.4627V3.32129Z" fill="#0078D4"></path>
    <path d="M0.753666 28.6572C1.06603 34.3221 3.34548 39.4635 6.91661 43.4061L10.4202 39.9025C7.76084 36.8548 6.05548 32.946 5.77688 28.6572H0.753666V28.6572Z" fill="#0078D7"></path>
    <path d="M48.7064 28.6572H43.6832C43.4046 32.946 41.7077 36.8463 39.0568 39.894L42.5604 43.3976C46.123 39.4466 48.394 34.3136 48.7064 28.6572Z" fill="#50E6FF"></path>
    <path d="M42.6448 11.3164L39.0399 14.9213C41.6908 17.9606 43.3961 21.8441 43.6832 26.1243H48.7148C48.4362 20.4426 46.1906 15.2843 42.6448 11.3164Z" fill="#50E6FF"></path>
    <path d="M32.7924 27.4329H26.7392V17.4287L16.6675 27.5005H22.7206V37.5047L32.7924 27.4329Z" fill="#0078D4"></path>
</svg>

<svg xmlns="http://www.w3.org/2000/svg" viewBox="0 0 49 49"><path d="M26.005 3.33v5.141a18.947 18.947 0 0 1 11.211 4.635l3.614-3.613A23.862 23.862 0 0 0 26.005 3.33z" fill="#50E6FF"/><path d="M6.832 11.3A23.941 23.941 0 0 0 .745 26.123h5.032c.287-4.28 2-8.18 4.66-11.22L6.832 11.3zM23.472 3.321A23.94 23.94 0 0 0 8.647 9.476l3.614 3.613a18.886 18.886 0 0 1 11.211-4.626V3.32z" fill="#0078D4"/><path d="M.754 28.657a23.885 23.885 0 0 0 6.163 14.75l3.503-3.504a18.948 18.948 0 0 1-4.643-11.246H.754z" fill="#0078D7"/><path d="M48.706 28.657h-5.023a18.958 18.958 0 0 1-4.626 11.237l3.503 3.504a23.934 23.934 0 0 0 6.146-14.74zM42.645 11.316l-3.605 3.605a18.933 18.933 0 0 1 4.643 11.203h5.032a23.926 23.926 0 0 0-6.07-14.808z" fill="#50E6FF"/><path d="M32.792 27.433H26.74V17.429L16.667 27.5h6.054v10.004l10.071-10.072z" fill="#0078D4"/></svg>
